X: 10505
T: Dookin' For Beetroot
R: reel
M: 4/4
K: Adorian
|:A3 B c/B/A cd|cdde g2 ed|eaag ed d/d/d|eged BGGB|
A3 B c/B/A cd|cdde g2 ed|eaag ed d/d/d|egdG GA A2:|
|:a3 e g2 ge|deed a3 g|e3 e degd|eged BGGB|
a3 e g2 ge|deed a3 g|e3 e degd|e/f/g dB AA A2:|

